Catalina-dark/actions/16/mail-attachment.svg

<?xml version="1.0" encoding="UTF-8" standalone="no"?>
<svg
   xmlns:dc="http://purl.org/dc/elements/1.1/"
   xmlns:cc="http://creativecommons.org/ns#"
   xmlns:rdf="http://www.w3.org/1999/02/22-rdf-syntax-ns#"
   xmlns:svg="http://www.w3.org/2000/svg"
   xmlns="http://www.w3.org/2000/svg"
   xmlns:sodipodi="http://sodipodi.sourceforge.net/DTD/sodipodi-0.dtd"
   xmlns:inkscape="http://www.inkscape.org/namespaces/inkscape"
   width="16"
   height="16"
   viewBox="0 0 16 16"
   version="1.1"
   id="svg7"
   sodipodi:docname="mail-attachment.svg"
   inkscape:version="0.92.4 5da689c313, 2019-01-14">
  <metadata
     id="metadata11">
    <rdf:RDF>
      <cc:Work
         rdf:about="">
        <dc:format>image/svg+xml</dc:format>
        <dc:type
           rdf:resource="http://purl.org/dc/dcmitype/StillImage" />
      </cc:Work>
    </rdf:RDF>
  </metadata>
  <sodipodi:namedview
     pagecolor="#ffffff"
     bordercolor="#666666"
     borderopacity="1"
     objecttolerance="10"
     gridtolerance="10"
     guidetolerance="10"
     inkscape:pageopacity="0"
     inkscape:pageshadow="2"
     inkscape:window-width="640"
     inkscape:window-height="480"
     id="namedview9"
     showgrid="false"
     inkscape:zoom="14.75"
     inkscape:cx="6.8135593"
     inkscape:cy="8"
     inkscape:window-x="0"
     inkscape:window-y="26"
     inkscape:window-maximized="0"
     inkscape:current-layer="svg7" />
  <defs
     id="defs3">
    <style
       id="current-color-scheme"
       type="text/css">
   .ColorScheme-Text { color:#5c616c; } .ColorScheme-Highlight { color:#5294e2; }
  </style>
  </defs>
  <path
     style="fill:#f1f6f8;fill-opacity:0.8509804"
     class="ColorScheme-Text"
     d="M 10.789062 1 C 9.8469587 1 8.9676229 1.4336431 8.3769531 2.1894531 L 2.6933594 9.4628906 C 2.1726869 10.129112 1.9346936 10.965838 2.0214844 11.818359 C 2.1082752 12.670806 2.5108577 13.437228 3.1542969 13.976562 L 3.5234375 14.287109 C 4.0721596 14.747088 4.7624798 15 5.46875 15 C 5.5777995 15 5.6883684 14.994342 5.796875 14.982422 C 6.6149816 14.893095 7.3517979 14.479906 7.8691406 13.824219 C 7.8708779 13.82212 7.8715892 13.821419 11.703125 8.9179688 C 12.385508 8.0444558 12.25537 6.7595515 11.412109 6.0527344 L 11.21875 5.890625 C 10.870284 5.5985419 10.430926 5.4375 9.9824219 5.4375 C 9.3842602 5.4375 8.8261314 5.7115233 8.4511719 6.1914062 L 4.6230469 11.089844 C 4.3729894 11.409966 4.4213805 11.881566 4.7304688 12.140625 C 4.8583748 12.247795 5.0192775 12.306641 5.1835938 12.306641 C 5.402489 12.306641 5.6064986 12.205401 5.7441406 12.029297 L 9.5722656 7.1308594 C 9.6723755 7.0027731 9.8206405 6.9296875 9.9804688 6.9296875 C 10.101932 6.9296875 10.216228 6.9717254 10.310547 7.0507812 L 10.503906 7.2128906 C 10.612775 7.3041291 10.680582 7.4353111 10.695312 7.5800781 C 10.710007 7.7248452 10.670161 7.8658357 10.582031 7.9785156 L 6.7597656 12.871094 C 6.4441265 13.274807 5.9743287 13.505822 5.4707031 13.505859 C 5.0931377 13.505859 4.7229956 13.370902 4.4296875 13.125 L 4.0605469 12.816406 C 3.7165686 12.527772 3.5014414 12.117927 3.4550781 11.662109 C 3.4086787 11.206404 3.5360928 10.758526 3.8144531 10.402344 L 9.4980469 3.1289062 C 9.813686 2.7249679 10.283267 2.4921875 10.787109 2.4921875 C 11.164711 2.4921875 11.534889 2.6272202 11.828125 2.8730469 L 12.197266 3.1835938 C 12.907336 3.7787431 13.017923 4.8603224 12.443359 5.5957031 C 12.322185 5.7508161 12.266914 5.9461231 12.287109 6.1445312 C 12.307341 6.3429019 12.401123 6.5210596 12.550781 6.6464844 C 12.678724 6.7536915 12.83959 6.8125 13.003906 6.8125 C 13.222802 6.8125 13.426847 6.7131764 13.564453 6.5371094 C 14.084366 5.8717506 14.323264 5.0350616 14.236328 4.1816406 C 14.149465 3.3281821 13.747895 2.5617971 13.105469 2.0234375 L 12.736328 1.7128906 C 12.18728 1.2529122 11.495188 1 10.789062 1 z"
     id="path5" />
</svg>

<svg width="16" height="16" version="1.1" viewBox="0 0 16 16" xmlns="http://www.w3.org/2000/svg">
<defs>
<style id="current-color-scheme" type="text/css">.ColorScheme-Text { color:#5c616c; } .ColorScheme-Highlight { color:#5294e2; }</style>
</defs>
<path class="ColorScheme-Text" d="m10.789 1c-0.9421 0-1.8214 0.43364-2.4121 1.1895l-5.6836 7.2734c-0.52067 0.66622-0.75867 1.5029-0.67188 2.3555 0.086791 0.85245 0.48937 1.6189 1.1328 2.1582l0.36914 0.31055c0.54872 0.45998 1.239 0.71289 1.9453 0.71289 0.10905 0 0.21962-0.005658 0.32812-0.017578 0.81811-0.089327 1.5549-0.50252 2.0723-1.1582 0.0017373-0.002099 0.0024486-0.0028 3.834-4.9063 0.68238-0.87351 0.55224-2.1584-0.29102-2.8652l-0.19336-0.16211c-0.34847-0.29208-0.78782-0.45312-1.2363-0.45312-0.59816 0-1.1563 0.27402-1.5312 0.75391l-3.8281 4.8984c-0.25006 0.32012-0.20167 0.79172 0.10742 1.0508 0.12791 0.10717 0.28881 0.16602 0.45312 0.16602 0.2189 0 0.4229-0.10124 0.56055-0.27734l3.8281-4.8984c0.10011-0.12809 0.24837-0.20117 0.4082-0.20117 0.12146 0 0.23576 0.042038 0.33008 0.12109l0.19336 0.16211c0.10887 0.091238 0.17668 0.22242 0.19141 0.36719 0.014695 0.14477-0.025151 0.28576-0.11328 0.39844l-3.8223 4.8926c-0.31564 0.40371-0.78544 0.63473-1.2891 0.63476-0.37757 0-0.74771-0.13496-1.041-0.38086l-0.36914-0.30859c-0.34398-0.28863-0.55911-0.69848-0.60547-1.1543-0.046399-0.4557 0.081015-0.90358 0.35938-1.2598l5.6836-7.2734c0.31564-0.40394 0.78522-0.63672 1.2891-0.63672 0.3776 0 0.74778 0.13503 1.041 0.38086l0.36914 0.31055c0.71007 0.59515 0.82066 1.6767 0.24609 2.4121-0.12117 0.15511-0.17644 0.35042-0.15625 0.54883 0.020232 0.19837 0.11401 0.37653 0.26367 0.50195 0.12794 0.10721 0.28881 0.16602 0.45312 0.16602 0.2189 0 0.42294-0.099324 0.56055-0.27539 0.51991-0.66536 0.75881-1.502 0.67188-2.3555-0.086863-0.85346-0.48843-1.6198-1.1309-2.1582l-0.36914-0.31055c-0.54905-0.45998-1.2411-0.71289-1.9473-0.71289z" fill="#f1f6f8" fill-opacity=".85098"/>
</svg>
